assets/efishery/obat-obatan.svg

<svg width="24" height="25" viewBox="0 0 24 25" fill="none" xmlns="http://www.w3.org/2000/svg">
<path d="M8.75 13.5234C8.75 13.2473 8.97386 13.0234 9.25 13.0234C9.52614 13.0234 9.75 13.2473 9.75 13.5234V14.5234H11.25C11.5261 14.5234 11.75 14.7473 11.75 15.0234C11.75 15.2996 11.5261 15.5234 11.25 15.5234H9.75V16.5234C9.75 16.7996 9.52614 17.0234 9.25 17.0234C8.97386 17.0234 8.75 16.7996 8.75 16.5234V15.5234H7.25C6.97386 15.5234 6.75 15.2996 6.75 15.0234C6.75 14.7473 6.97386 14.5234 7.25 14.5234H8.75V13.5234Z" fill="#1D1D1D"/>
<path fill-rule="evenodd" clip-rule="evenodd" d="M5.75 2.27344C4.7835 2.27344 4 3.05694 4 4.02344V5.02344C4 5.72154 4.40876 6.32416 5 6.60503V7.79636L3.12596 10.6074C3.04383 10.7306 3 10.8754 3 11.0234V18.5234C3 20.0422 4.23122 21.2734 5.75 21.2734H9.69617C10.7857 23.0162 13.0788 23.5585 14.8349 22.4823L19.9507 19.3473C21.7166 18.2652 22.2709 15.9564 21.1888 14.1905C20.1066 12.4247 17.7979 11.8704 16.032 12.9525L15.5 13.2785V11.0234C15.5 10.8754 15.4562 10.7306 15.374 10.6074L13.5 7.79636V6.60503C14.0912 6.32416 14.5 5.72154 14.5 5.02344V4.02344C14.5 3.05694 13.7165 2.27344 12.75 2.27344H5.75ZM9.20363 18.5234C9.11888 18.9317 9.10173 19.3544 9.15654 19.7734H5.75C5.05964 19.7734 4.5 19.2138 4.5 18.5234H9.20363ZM10.9162 16.0875C10.3239 16.4504 9.86795 16.9513 9.5643 17.5234H4.5V11.5234H14V14.1977L10.9162 16.0875ZM13.5153 10.5234H4.98472L6.37404 8.43946C6.45617 8.31626 6.5 8.17151 6.5 8.02344V7.27344H12V8.02344C12 8.17151 12.0438 8.31626 12.126 8.43946L13.5153 10.5234ZM5.5 4.02344C5.5 3.88537 5.61193 3.77344 5.75 3.77344H12.75C12.8881 3.77344 13 3.88537 13 4.02344V5.02344C13 5.16151 12.8881 5.27344 12.75 5.27344H5.75C5.61193 5.27344 5.5 5.16151 5.5 5.02344V4.02344ZM11.6999 17.3665C10.6404 18.0157 10.3078 19.401 10.9571 20.4605C11.6064 21.5201 12.9916 21.8526 14.0511 21.2033L16.4809 19.7144L14.1655 15.8555L11.6999 17.3665ZM15.0182 15.333L17.3336 19.1919L19.167 18.0684C20.2265 17.4191 20.5591 16.0338 19.9098 14.9743C19.2605 13.9148 17.8753 13.5822 16.8157 14.2315L15.0182 15.333Z" fill="#1D1D1D"/>
</svg>

<svg viewBox="0 0 24 25" xmlns="http://www.w3.org/2000/svg">
  <path d="M8.75 13.523a.5.5 0 0 1 1 0v1h1.5a.5.5 0 0 1 0 1h-1.5v1a.5.5 0 1 1-1 0v-1h-1.5a.5.5 0 1 1 0-1h1.5v-1z"/>
  <path fill-rule="evenodd" clip-rule="evenodd" d="M5.75 2.273A1.75 1.75 0 0 0 4 4.023v1c0 .699.409 1.301 1 1.582v1.191l-1.874 2.811a.75.75 0 0 0-.126.416v7.5a2.75 2.75 0 0 0 2.75 2.75h3.946a3.75 3.75 0 0 0 5.139 1.21l5.116-3.136a3.75 3.75 0 1 0-3.919-6.395l-.532.326v-2.255a.75.75 0 0 0-.126-.416L13.5 7.797V6.604c.591-.28 1-.883 1-1.582v-1a1.75 1.75 0 0 0-1.75-1.75h-7zm3.454 16.25a3.755 3.755 0 0 0-.047 1.25H5.75c-.69 0-1.25-.56-1.25-1.25h4.704zm1.712-2.436a3.732 3.732 0 0 0-1.352 1.436H4.5v-6H14v2.675l-3.084 1.89zm2.6-5.564H4.984L6.374 8.44a.75.75 0 0 0 .126-.416v-.75H12v.75a.75.75 0 0 0 .126.416l1.39 2.084zM5.5 4.023a.25.25 0 0 1 .25-.25h7a.25.25 0 0 1 .25.25v1a.25.25 0 0 1-.25.25h-7a.25.25 0 0 1-.25-.25v-1zm6.2 13.343a2.25 2.25 0 1 0 2.351 3.837l2.43-1.489-2.316-3.858-2.465 1.51zm3.318-2.033 2.316 3.859 1.833-1.124a2.25 2.25 0 0 0-2.351-3.837l-1.798 1.102z"/>
</svg>
